X:1
T: An Echo from Leinster
C:
R:Reel
Q: 232
K:D
M:4/4
L:1/8
|:ag|fg fe de fe|((3def) ((3edc) d2 Ac|Bd gf ed cd|((3efe) ((3dcB) A2 ag|
fg fe de fe|((3def) ((3edc) d2 Ac|Ba gf ed ce|d2 f2 d2:|
|:AG|FA de fd AG|FA de fd Ag|fd d2 ((3Bcd) gf|((3efe) ((3dcB) ((3ABA) ((3GFE)|
FA de fd AG|FA ((3def) ge cg|fd cA Bg ec|d2 f2 d2:|
